<?xml version="1.0" encoding="UTF-8"?>
<map version="1.10" tiledversion="1.12.2" orientation="orthogonal" renderorder="right-down" width="21" height="16" tilewidth="20" tileheight="20" infinite="0" nextlayerid="7" nextobjectid="31">
 <tileset firstgid="1" source="ruins.tsx"/>
 <layer id="1" name="Tile Layer 1" width="21" height="16">
  <data encoding="csv">
0,0,0,0,0,0,0,0,0,0,0,0,0,0,0,0,0,0,0,0,0,
0,0,0,0,0,0,0,0,0,0,0,0,0,0,0,0,0,0,0,0,0,
0,0,0,0,17,10,10,10,18,0,17,10,10,10,18,0,0,0,0,0,0,
0,0,0,0,12,69,69,69,11,0,12,69,69,69,11,0,0,0,0,0,0,
0,0,17,10,44,5,69,69,43,10,44,69,6,7,43,10,10,10,18,0,0,
0,0,12,69,71,101,101,102,68,7,71,102,102,102,68,5,69,69,11,0,0,
0,0,12,69,71,137,137,137,68,69,71,137,137,137,68,36,37,69,11,0,0,
0,0,12,102,103,137,169,137,100,102,103,137,169,137,100,101,102,101,11,0,0,
0,0,12,137,137,137,136,137,137,137,137,137,136,137,137,137,137,137,11,0,0,
0,0,12,137,137,113,136,112,137,137,137,113,136,112,137,137,137,137,11,0,0,
0,0,12,137,202,136,136,136,136,136,136,136,136,136,136,136,203,137,11,0,0,
0,0,12,137,137,137,137,137,137,137,137,137,137,137,137,137,137,137,11,0,0,
0,0,49,9,9,9,9,9,9,9,9,9,9,9,9,9,9,9,50,0,0,
0,0,0,0,0,0,0,0,0,0,0,0,0,0,0,0,0,0,0,0,0,
0,0,0,0,0,0,0,0,0,0,0,0,0,0,0,0,0,0,0,0,0,
0,0,0,0,0,0,0,0,0,0,0,0,0,0,0,0,0,0,0,0,0
</data>
 </layer>
 <objectgroup id="5" name="Hitboxes" visible="0">
  <object id="8" x="160" y="100" width="60" height="60"/>
  <object id="11" x="100" y="60" width="60" height="60"/>
  <object id="13" x="60" y="100" width="40" height="60"/>
  <object id="14" x="40" y="100" width="20" height="140"/>
  <object id="16" x="220" y="60" width="60" height="60"/>
  <object id="17" x="280" y="100" width="80" height="60"/>
  <object id="18" x="360" y="100" width="20" height="160"/>
  <object id="19" x="40" y="240" width="320" height="20"/>
 </objectgroup>
 <objectgroup id="6" name="Interactions" visible="0">
  <object id="23" x="180" y="180" width="20" height="20">
   <properties>
    <property name="name" value="sign_floor"/>
   </properties>
  </object>
  <object id="24" x="120" y="140" width="20" height="20">
   <properties>
    <property name="name" value="froggit_left"/>
   </properties>
  </object>
  <object id="26" x="240" y="140" width="20" height="20">
   <properties>
    <property name="name" value="froggit_right"/>
   </properties>
  </object>
  <object id="28" x="300" y="140" width="40" height="20">
   <properties>
    <property name="name" value="sign_wall"/>
   </properties>
  </object>
  <object id="30" name="Start" x="130" y="210">
   <properties>
    <property name="name" value="spawn"/>
   </properties>
   <point/>
  </object>
 </objectgroup>
 <layer id="3" name="Decorations" width="21" height="16">
  <data encoding="csv">
0,0,0,0,0,0,0,0,0,0,0,0,0,0,0,0,0,0,0,0,0,
0,0,0,0,0,0,0,0,0,0,0,0,0,0,0,0,0,0,0,0,0,
0,0,0,0,0,0,0,0,0,0,0,0,0,0,0,0,0,0,0,0,0,
0,0,0,0,0,0,0,0,0,0,0,0,0,0,0,0,0,0,0,0,0,
0,0,0,0,0,0,0,0,0,0,0,0,0,0,0,0,0,0,0,0,0,
0,0,0,0,0,0,0,0,0,0,0,0,0,0,0,0,0,0,0,0,0,
0,0,0,0,0,0,0,0,0,0,0,0,0,0,0,0,0,0,0,0,0,
0,0,0,0,0,0,0,0,0,0,0,0,0,0,0,0,0,0,0,0,0,
0,0,0,0,0,0,0,0,0,0,0,0,0,0,172,173,173,173,0,0,0,
0,0,0,0,0,0,0,0,0,0,0,0,0,0,204,205,205,173,0,0,0,
0,0,0,0,0,0,0,0,0,0,0,0,0,0,0,0,204,205,0,0,0,
0,0,0,0,0,0,0,0,0,0,0,0,0,0,0,0,0,0,0,0,0,
0,0,0,0,0,0,0,0,0,0,0,0,0,0,0,0,0,0,0,0,0,
0,0,0,0,0,0,0,0,0,0,0,0,0,0,0,0,0,0,0,0,0,
0,0,0,0,0,0,0,0,0,0,0,0,0,0,0,0,0,0,0,0,0,
0,0,0,0,0,0,0,0,0,0,0,0,0,0,0,0,0,0,0,0,0
</data>
 </layer>
 <layer id="4" name="Decorations 2" width="21" height="16">
  <data encoding="csv">
0,0,0,0,0,0,0,0,0,0,0,0,0,0,0,0,0,0,0,0,0,
0,0,0,0,0,0,0,0,0,0,0,0,0,0,0,0,0,0,0,0,0,
0,0,0,0,0,0,0,0,0,0,0,0,0,0,0,0,0,0,0,0,0,
0,0,0,0,0,0,0,0,0,0,0,0,0,0,0,0,0,0,0,0,0,
0,0,0,0,0,0,0,0,0,0,0,0,0,0,0,0,0,0,0,0,0,
0,0,0,0,0,0,0,0,0,0,0,0,0,0,0,0,0,0,0,0,0,
0,0,0,0,0,0,0,0,0,0,0,0,0,0,0,0,0,0,0,0,0,
0,0,0,0,0,0,0,0,0,0,0,0,0,0,0,0,0,0,0,0,0,
0,0,0,0,0,0,0,0,0,0,0,0,0,0,0,0,0,0,0,0,0,
0,0,0,0,0,0,0,0,0,0,0,0,0,0,0,0,172,0,0,0,0,
0,0,0,0,0,0,0,0,0,0,0,0,0,0,0,0,0,0,0,0,0,
0,0,0,0,0,0,0,0,0,0,0,0,0,0,0,0,0,0,0,0,0,
0,0,0,0,0,0,0,0,0,0,0,0,0,0,0,0,0,0,0,0,0,
0,0,0,0,0,0,0,0,0,0,0,0,0,0,0,0,0,0,0,0,0,
0,0,0,0,0,0,0,0,0,0,0,0,0,0,0,0,0,0,0,0,0,
0,0,0,0,0,0,0,0,0,0,0,0,0,0,0,0,0,0,0,0,0
</data>
 </layer>
</map>
